svgs/sharp-light/keynote.svg

<svg xmlns="http://www.w3.org/2000/svg" viewBox="0 0 512 512"><!--! Font Awesome Pro 6.4.0 by @fontawesome - https://fontawesome.com License - https://fontawesome.com/license (Commercial License) Copyright 2023 Fonticons, Inc. --><path d="M304 32c8.8 0 16 7.2 16 16s-7.2 16-16 16H224V32h80zM224 0H192V32h-8c-44.2 0-80 35.8-80 80v48H64L0 288v16 48 32H32 480h32V352 304 288L448 160H136V112c0-26.5 21.5-48 48-48h8V96h32 80c26.5 0 48-21.5 48-48s-21.5-48-48-48H224zM32 352V320H480v32H32zm3.8-64l48-96H428.2l48 96H35.8zM128 512h16H256 368h16V480H368 272V416H240v64H144 128v32z"/></svg>

<svg xmlns="http://www.w3.org/2000/svg" viewBox="0 0 512 512"><!--! Font Awesome Pro 6.6.0 by @fontawesome - https://fontawesome.com License - https://fontawesome.com/license (Commercial License) Copyright 2024 Fonticons, Inc. --><path d="M304 32c8.8 0 16 7.2 16 16s-7.2 16-16 16l-80 0 0-32 80 0zM224 0L192 0l0 32-8 0c-44.2 0-80 35.8-80 80l0 48-40 0L0 288l0 16 0 48 0 32 32 0 448 0 32 0 0-32 0-48 0-16L448 160l-312 0 0-48c0-26.5 21.5-48 48-48l8 0 0 32 32 0 80 0c26.5 0 48-21.5 48-48s-21.5-48-48-48L224 0zM32 352l0-32 448 0 0 32L32 352zm3.8-64l48-96 344.4 0 48 96L35.8 288zM128 512l16 0 112 0 112 0 16 0 0-32-16 0-96 0 0-64-32 0 0 64-96 0-16 0 0 32z"/></svg>
